X:1
T: Anna
C:Bruce Shawyer
R:Jig
Q:180
K:G
M:6/8
L:1/16
|:B2|B2A2G2 G2A2G2|d2B2G2 G6|c2B2A2 A2B2A2|c2A2=F2 F6|
B2A2G2 G2B2G2|A2F2D2 D6|E2F2G2 A2F2D2|G6 G4:|
|:d2|d2c2B2 B2c2d2|d2A2F2 D6|E2F2G2 G2A2B2|A2B2c2 c6|
B2c2d2 d2c2B2|c2B2A2 A6|c2B2A2 F2G2A2|G6 G4:|
